X: 16147
T: Green Hills Of Tyrol, The
R: waltz
M: 3/4
K: Gmajor
|:DGA|B2 BGBc|d2 deBe|dcAFAe|dBGDGA|
B2 BGBc|d2 deBe|dcADFA|1 G3:|2 G2G2 ef||
g2 g2 fe|ed d2 e2|dc c2 d2|cB B2 ef|
g2 g2 fe|ed d2 e2|d^c ^c2 BA|
d3 AfA|e3 A^cA|d3 AfA|e3 A^cA|
de^cede|cdBdAd|G3 DGA||

